remix/Document/file-user-line.svg

<svg viewBox="0 0 24 24" fill="currentColor" xmlns="http://www.w3.org/2000/svg"><path d="M15 4H5V20H19V8H15V4ZM3 2.9918C3 2.44405 3.44749 2 3.9985 2H16L20.9997 7L21 20.9925C21 21.5489 20.5551 22 20.0066 22H3.9934C3.44476 22 3 21.5447 3 21.0082V2.9918ZM12 11.5C10.6193 11.5 9.5 10.3807 9.5 9C9.5 7.61929 10.6193 6.5 12 6.5C13.3807 6.5 14.5 7.61929 14.5 9C14.5 10.3807 13.3807 11.5 12 11.5ZM7.52746 17C7.77619 14.75 9.68372 13 12 13C14.3163 13 16.2238 14.75 16.4725 17H7.52746Z"/></svg>

<svg viewBox="0 0 24 24" xmlns="http://www.w3.org/2000/svg"><path fill="none" d="M0 0h24v24H0Z"/><path d="M15 4H5v16h14V8h-4V4ZM3 2.99c0-.55.44-1 .99-1h12l5 5v13.99h0c0 .55-.45 1-1 1 -.01 0-.01 0-.01 0H3.96v0c-.55-.01-.99-.45-1-1V2.96Zm9 8.508v0c-1.39 0-2.5-1.12-2.5-2.5 0-1.39 1.11-2.5 2.5-2.5v0c1.38 0 2.5 1.11 2.5 2.5 0 1.38-1.12 2.5-2.5 2.5Zm-4.48 5.5h0c.27-2.48 2.49-4.26 4.96-3.99 2.09.23 3.75 1.88 3.98 3.98H7.51Z"/></svg>
